X:1
T: The Merry Companion
N:
C:
S:
A:
O:
R:
M:4/4
K:D
I:speed 210
%W: A1
% voice 1 (1 lines, 35 notes)
K:D
M:4/4
L:1/16
d4 c2 B2 A4 d4 |e4 g4 f4 d4 |f4 e2 d2 c4 B4 |c4 d4 e8 |d4 D4 F4 A4 |B2 c2 d2 e2 c4 A4 |e6 d2 c4 B2 A2 |E4 ^G4 A8 |
%W: A2
% voice 1 (1 lines, 35 notes)
d4 c2 B2 A4 d4 |e4 g4 f4 d4 |f4 e2 d2 c4 B4 |c4 d4 e8 |d4 D4 F4 A4 |B2 c2 d2 e2 c4 A4 |e6 d2 c4 B2 A2 |E4 ^G4 A8 |
%W: B1
% voice 1 (1 lines, 36 notes)
e4 e2 d2 c4 A4 |d4 f4 B4 G4 |d4 B4 g2 f2 e2 f2 |d4 c4 B8 |d4 D4 F4 A4 |B4 e2 d2 c4 A4 |f4 d2 c2 B4 g2 f2 |e6 d2 d8 |
%W: B2
% voice 1 (1 lines, 36 notes)
e4 e2 d2 c4 A4 |d4 f4 B4 G4 |d4 B4 g2 f2 e2 f2 |d4 c4 B8 |d4 D4 F4 A4 |B4 e2 d2 c4 A4 |f4 d2 c2 B4 g2 f2 |e6 d2 d8 ||
